components/Common/Svg/svgs/eLearning.svg

<svg width="40" height="40" viewBox="0 0 40 40" fill="none" xmlns="http://www.w3.org/2000/svg">
<path fill-rule="evenodd" clip-rule="evenodd" d="M39.2976 26.0266L30.0123 21.1396C29.6916 20.9708 29.3084 20.9708 28.9877 21.1396L19.7024 26.0266C18.9188 26.439 18.9188 27.561 19.7024 27.9734L23 29.709V29.7154V29.7289V29.7424V29.7559V29.7695V29.7831V29.7968V29.8104V29.8241V29.8379V29.8517V29.8655V29.8794V29.8932V29.9072V29.9211V29.9351V29.9491V29.9632V29.9773V29.9914V30.0055V30.0197V30.0339V30.0482V30.0624V30.0767V30.0911V30.1054V30.1198V30.1343V30.1487V30.1632V30.1777V30.1923V30.2068V30.2214V30.236V30.2507V30.2654V30.2801V30.2948V30.3096V30.3244V30.3392V30.3541V30.3689V30.3838V30.3988V30.4137V30.4287V30.4437V30.4587V30.4737V30.4888V30.5039V30.519V30.5342V30.5493V30.5645V30.5797V30.595V30.6102V30.6255V30.6408V30.6561V30.6715V30.6868V30.7022V30.7176V30.733V30.7485V30.764V30.7794V30.795V30.8105V30.826V30.8416V30.8572V30.8728V30.8884V30.904V30.9197V30.9353V30.951V30.9667V30.9824V30.9982V31.0139V31.0297V31.0455V31.0613V31.0771V31.0929V31.1088V31.1246V31.1405V31.1564V31.1723V31.1882V31.2041V31.2201V31.236V31.252V31.268V31.284V31.3V31.316V31.332V31.3481V31.3641V31.3802V31.3962V31.4123V31.4284V31.4445V31.4606V31.4767V31.4929V31.509V31.5251V31.5413V31.5575V31.5736V31.5898V31.606V31.6222V31.6384V31.6546V31.6708V31.687V31.7032V31.7195V31.7357V31.7519V31.7682V31.7844V31.8007V31.817V31.8332V31.8495V31.8658V31.882V31.8983V31.9146V31.9309V31.9472V31.9634V31.9797V31.996V32.0123V32.0286V32.0449V32.0612V32.0775V32.0938V32.1101V32.1264V32.1427V32.159V32.1753V32.1916V32.2079V32.2242V32.2404V32.2567V32.273V32.2893V32.3056V32.3219V32.3381V32.3544V32.3707V32.3869V32.4032V32.4194V32.4357V32.4519V32.4682V32.4844V32.5006V32.5169V32.5331V32.5493V32.5655V32.5817V32.5979V32.6141V32.6302V32.6464V32.6626V32.6787V32.6949V32.711V32.7271V32.7432V32.7593V32.7754V32.7915V32.8076V32.8237V32.8397V32.8558V32.8718V32.8878V32.9038V32.9198V32.9358V32.9518V32.9678V32.9837V32.9997V33.0156V33.0315V33.0474V33.0633V33.0791V33.095V33.1108V33.1267V33.1425V33.1583V33.1741V33.1898V33.2056V33.2213V33.237V33.2527V33.2684V33.2841V33.2997V33.3154V33.331V33.3466V33.3621V33.3777V33.3932V33.4087V33.4243V33.4397V33.4552V33.4706V33.4861V33.5015V33.5168V33.5322V33.5475V33.5628V33.5781V33.5934V33.6087V33.6239V33.6391V33.6543V33.6694V33.6846V33.6997V33.7148V33.7298V33.7449V33.7599V33.7749V33.7899V33.8048V33.8197V33.8346V33.8495V33.8643V33.8791V33.8939V33.9087V33.9234V33.9381V33.9528V33.9674V33.9821V33.9966V34.0112V34.0257V34.0403V34.0547V34.0692V34.0836V34.098V34.1123V34.1267V34.141V34.1552V34.1695V34.1837V34.1978V34.212V34.2261V34.2402V34.2542V34.2682V34.2822V34.2962V34.3101V34.3239V34.3378V34.3516V34.3654V34.3791V34.3928V34.4065V34.4201V34.4337V34.4473V34.4608V34.4743V34.4878V34.5012V34.5146V34.5279V34.5412V34.5545V34.5677V34.5809V34.5941V34.6072V34.6203V34.6333V34.6463V34.6592V34.6722V34.685V34.6979V34.7107V34.7234V34.7362V34.7488V34.7615V34.7741V34.7866V34.7991V34.8116V34.824V34.8364V34.8487V34.861V34.8733V34.8855V34.8976V34.9097V34.9218V34.9338V34.9458V34.9578V34.9697V34.9815V34.9933V35.0051V35.0168V35.0284V35.04V35.0516V35.0631V35.0746V35.086V35.0974V35.1087V35.12V35.1312V35.1424V35.1535V35.1646V35.1757V35.1866V35.1976V35.2085V35.2193V35.2301V35.2408V35.2515V35.2621V35.2727V35.2832V35.2937V35.3041V35.3145V35.3248V35.335V35.3452V35.3554V35.3655V35.3755V35.3855V35.3954V35.4053V35.4151V35.4249V35.4346V35.4443V35.4539V35.4634V35.4729V35.4823V35.4917V35.501V35.5103V35.5195V35.5286V35.5377V35.5467V35.5557V35.5646V35.5735V35.5823V35.591V35.5997V35.6083V35.6168V35.6253V35.6337V35.6421V35.6504V35.6586V35.6668V35.6749V35.683V35.691V35.6989V35.7068V35.7146V35.7224V35.73V35.7376V35.7452V35.7527V35.7601V35.7675V35.7748V35.782V35.7891V35.7962V35.8033V35.8102V35.8171V35.824V35.8307V35.8374V35.844V35.8506V35.8571V35.8635V35.8699V35.8762V35.8824V35.8885V35.8946V35.9006V35.9066V35.9124V35.9182V35.924V35.9296V35.9352V35.9407V35.9462V35.9516V35.9569V35.9621V35.9672C23 36.2342 23.0959 36.4744 23.2476 36.6599C23.8978 37.455 24.8773 38.0627 25.935 38.4854C27.0057 38.9134 28.2319 39.1822 29.4547 39.249C31.8216 39.3784 34.5594 38.7489 35.8512 36.5256C35.9467 36.3614 36 36.1717 36 35.9739V29.709L39.2976 27.9734C40.0812 27.561 40.0812 26.439 39.2976 26.0266ZM25 30.764V30.7616L28.9877 32.8604C29.3084 33.0292 29.6916 33.0292 30.0123 32.8604L34 30.7616V35.7111C33.2197 36.8197 31.5597 37.3611 29.5638 37.252C28.5496 37.1966 27.538 36.9723 26.6772 36.6283C25.9489 36.3372 25.379 35.9811 25 35.6145V35.6083V35.5997V35.591V35.5823V35.5735V35.5646V35.5557V35.5467V35.5377V35.5286V35.5195V35.5103V35.501V35.4917V35.4823V35.4729V35.4634V35.4539V35.4443V35.4346V35.4249V35.4151V35.4053V35.3954V35.3855V35.3755V35.3655V35.3554V35.3452V35.335V35.3248V35.3145V35.3041V35.2937V35.2832V35.2727V35.2621V35.2515V35.2408V35.2301V35.2193V35.2085V35.1976V35.1866V35.1757V35.1646V35.1535V35.1424V35.1312V35.12V35.1087V35.0974V35.086V35.0746V35.0631V35.0516V35.04V35.0284V35.0168V35.0051V34.9933V34.9815V34.9697V34.9578V34.9458V34.9338V34.9218V34.9097V34.8976V34.8855V34.8733V34.861V34.8487V34.8364V34.824V34.8116V34.7991V34.7866V34.7741V34.7615V34.7488V34.7362V34.7234V34.7107V34.6979V34.685V34.6722V34.6592V34.6463V34.6333V34.6203V34.6072V34.5941V34.5809V34.5677V34.5545V34.5412V34.5279V34.5146V34.5012V34.4878V34.4743V34.4608V34.4473V34.4337V34.4201V34.4065V34.3928V34.3791V34.3654V34.3516V34.3378V34.3239V34.3101V34.2962V34.2822V34.2682V34.2542V34.2402V34.2261V34.212V34.1978V34.1837V34.1695V34.1552V34.141V34.1267V34.1123V34.098V34.0836V34.0692V34.0547V34.0403V34.0257V34.0112V33.9966V33.9821V33.9674V33.9528V33.9381V33.9234V33.9087V33.8939V33.8791V33.8643V33.8495V33.8346V33.8197V33.8048V33.7899V33.7749V33.7599V33.7449V33.7298V33.7148V33.6997V33.6846V33.6694V33.6543V33.6391V33.6239V33.6087V33.5934V33.5781V33.5628V33.5475V33.5322V33.5168V33.5015V33.4861V33.4706V33.4552V33.4397V33.4243V33.4087V33.3932V33.3777V33.3621V33.3466V33.331V33.3154V33.2997V33.2841V33.2684V33.2527V33.237V33.2213V33.2056V33.1898V33.1741V33.1583V33.1425V33.1267V33.1108V33.095V33.0791V33.0633V33.0474V33.0315V33.0156V32.9997V32.9837V32.9678V32.9518V32.9358V32.9198V32.9038V32.8878V32.8718V32.8558V32.8397V32.8237V32.8076V32.7915V32.7754V32.7593V32.7432V32.7271V32.711V32.6949V32.6787V32.6626V32.6464V32.6302V32.6141V32.5979V32.5817V32.5655V32.5493V32.5331V32.5169V32.5006V32.4844V32.4682V32.4519V32.4357V32.4194V32.4032V32.3869V32.3707V32.3544V32.3381V32.3219V32.3056V32.2893V32.273V32.2567V32.2404V32.2242V32.2079V32.1916V32.1753V32.159V32.1427V32.1264V32.1101V32.0938V32.0775V32.0612V32.0449V32.0286V32.0123V31.996V31.9797V31.9634V31.9472V31.9309V31.9146V31.8983V31.882V31.8658V31.8495V31.8332V31.817V31.8007V31.7844V31.7682V31.7519V31.7357V31.7195V31.7032V31.687V31.6708V31.6546V31.6384V31.6222V31.606V31.5898V31.5736V31.5575V31.5413V31.5251V31.509V31.4929V31.4767V31.4606V31.4445V31.4284V31.4123V31.3962V31.3802V31.3641V31.3481V31.332V31.316V31.3V31.284V31.268V31.252V31.236V31.2201V31.2041V31.1882V31.1723V31.1564V31.1405V31.1246V31.1088V31.0929V31.0771V31.0613V31.0455V31.0297V31.0139V30.9982V30.9824V30.9667V30.951V30.9353V30.9197V30.904V30.8884V30.8728V30.8572V30.8416V30.826V30.8105V30.795V30.7794V30.764ZM24.4657 28.2204L22.1471 27L29.5 23.1301L36.8529 27L34.5343 28.2204L29.5 30.87L24.4657 28.2204ZM31 18.5C31 19.0523 30.5523 19.5 30 19.5C29.4477 19.5 29 19.0523 29 18.5V6.25001C29 5.42158 28.3284 4.75001 27.5 4.75001H12.5C11.6716 4.75001 11 5.42158 11 6.25001V33.75C11 34.5784 11.6716 35.25 12.5 35.25H20.5C21.0523 35.25 21.5 35.6977 21.5 36.25C21.5 36.8023 21.0523 37.25 20.5 37.25H12.5C10.567 37.25 9 35.683 9 33.75V6.25001C9 4.31701 10.567 2.75001 12.5 2.75001H27.5C29.433 2.75001 31 4.31701 31 6.25001V18.5Z" fill="#161616"/>
</svg>

<svg width="40" height="40" viewBox="0 0 40 40" fill="none" xmlns="http://www.w3.org/2000/svg"><path fill-rule="evenodd" clip-rule="evenodd" d="m39.298 26.027-9.286-4.887a1.1 1.1 0 0 0-1.024 0l-9.286 4.887a1.1 1.1 0 0 0 0 1.946L23 29.71V35.967c0 .267.096.507.248.693.65.795 1.63 1.403 2.687 1.825 1.07.428 2.297.697 3.52.764 2.367.13 5.104-.5 6.396-2.723.096-.165.149-.354.149-.552v-6.265l3.298-1.736a1.1 1.1 0 0 0 0-1.946ZM25 30.764v-.002l3.988 2.098a1.1 1.1 0 0 0 1.024 0L34 30.762v4.95c-.78 1.108-2.44 1.65-4.436 1.54a9.298 9.298 0 0 1-2.887-.624c-.728-.29-1.298-.647-1.677-1.014V30.765Zm-.534-2.544L22.147 27l7.353-3.87L36.853 27l-2.319 1.22-5.034 2.65-5.034-2.65ZM31 18.5a1 1 0 1 1-2 0V6.25a1.5 1.5 0 0 0-1.5-1.5h-15a1.5 1.5 0 0 0-1.5 1.5v27.5a1.5 1.5 0 0 0 1.5 1.5h8a1 1 0 1 1 0 2h-8a3.5 3.5 0 0 1-3.5-3.5V6.25a3.5 3.5 0 0 1 3.5-3.5h15a3.5 3.5 0 0 1 3.5 3.5V18.5Z" fill="#161616"/></svg>
